X:1
T:Cinq Mélodies, Op.58
T:5. C'est l'extase
T:5. C'est l'extase
T:Cinq Mélodies, Op.58 
T:Gabriel Fauré
T:Paul Verlaine
T:OpenScore (CC0)
T:OpenScore (CC0)
T:OpenScore (CC0)
T:OpenScore (CC0)
T:OpenScore (CC0)
T:OpenScore (CC0)
T:OpenScore (CC0)
C:Gabriel Fauré
Z:Paul Verlaine
Z:OpenScore (CC0)
%%score 1 { ( 2 5 6 ) | ( 3 4 ) }
L:1/8
Q:1/8=120
M:3/4
K:Db
V:1 treble nm="Voice"
V:2 treble nm="Piano"
V:5 treble 
V:6 treble 
V:3 bass 
V:4 bass 
V:1
"^Adagio non troppo." z2 | z6 | z2 z2"^dolcissimo" d3/2 d/ | A3 A B3/2 B/ | c4 A2 | %5
w: ||C'est l'ex-|\- ta- se lan- gou-|reu \-- \- se,|
 z2 z2"^sempre dolce" z d | A A B2- B A/ B/ | c4 A2 | z2!mf! d _f e _c |!>(! A4 (G>!>)!A) | %10
w: C'est|la fa- ti- gue a- mou-|reu  \-- \-  se,|C'est tous les fris-|\- sons des _|
!pp! A4 z!mf! =e | ^c =A ^F2 ^G3/2 =E/ |!>(! =E2!>)! ^C2!<(! ^c2!<)! | =d2 B =G =A3/2 F/ | %14
w: bois, Par-|mi l'é- trein- te des|bri- ses, C'est|vers les ra- mu- res|
!>(! F2!>)!!p! =D3 =G |!pp! =D2 =E ^F ^G3/2 G/ | _A4- A z | z6 | %18
w: gri- ses Le|choeur des pe- ti- tes|voix. _||
!p!!<(! A _F G!<)! A!>(! __B3/2!>)! _c/ |!p! =c4 A2- | A2 z2 z2 | %21
w: Ô le frêle et frais mur-|mu \-- \- re.|_|
 z!<(! =G =A =B!<)! c!>(! =d/ d/!>)! |!p! _e2 E2 z"^dolce" e | d c B2 A =G | _G4 G2 | %25
w: Ce- la ga- zouille et su-|sur \-- \- re Ce-|\- la res- semble au bruit|doux Que|
 =G2 A D E3/2 F/ | _G2 G z!<(! G!<)! _F |!mf! _c3 d c B | B2 G!>(! G A B!>)! |!p! B4 A _F | %30
w: l'herbe a- gi- tée ex-|\-  pi- re Tu di-|rais, sous l'eau qui|vi- re, Le rou- lis|sourd des cail-|
 E2- E z z2 | z6 | z2 z!mf! A!<(! _c2-!<)! | _c3 c (3c B c |!>(! B4!>)!!p! B2- | B2 z2 z2 | %36
w: loux. _||Cette â  \--|* \-  me qui se la-|men- te|_|
!<(! A2 A!<)! A!f! _c2- | c2- (3c B _c B2- |!>(! B4!>)! B2 | z2!f! B3 d |!>(! c3 =A F3/2!>)! C/ | %41
w: Et cet- te plain  \--|* * \-  te dor- man  \--|\-- \-  te,|C'est la|nô- tre,  n'est- ce|
!p! C4 z!f! c | e3/2 G/ G2 B3/2 c/ |!>(! c2!>)!!p! =D2- D z |"^cresc." c3/2!<(! c/ d3!<)! e | %45
w: pas? La|mien- ne, dis,~ et la|tien \-- \- ne, _|Dont s'ex- ha- le|
!f! _f3/2 A/ B2 A2- | A z!f! (cB) (=dc) |!>(! C3 =G (_G2-!>)! |!p! G2"^dim." F4-) | %49
w: l'humble an- tien \-- ne|_ Par _ ce _|tiè \-- \- de soir,|_ _|
!pp! F2- F z E2 | D6- | D2 z2 z2 | z6 |] %53
w: * * tout|bas.|_||
V:2
!pp! !tenuto!D2 | !tenuto!A,4 !tenuto!d2 | !tenuto!A6- | A2 (A2 B2 | c4) E/G/A/c/ | %5
 e/g/a/ z/ z2 z/ D/z/D/ | A2 B4 | x2 x/!<(! (C/E/G/ A/_c/_f/!<)!a/ |!mf! d'2 d2 e2 | A4 G>A | %10
 A2) z/!<(! (A,/D/F/ A/d/_f/a/!<)! | =a/) x/ x ((^F2 ^G2)) | %12
 z/ [^C=E]/z/[CE]/ z/!<(! (C/E/=A/ ^c/=e/=a/!<)!^c'/ | %13
 =d'/) [F_B]/z/[FB]/z/[B,=D=G]/z/[B,DG]/z/[=A,DF]/z/[A,DF]/ | x2 x2 (^F=G | =A=B c4) | %16
"^dolce espress." z (fe_cd/B/c- | _cABGA/E/_F-) | _F2 z2 z2 | z (bagf/=d/e- | ^d^f=e=d^c/=A/=B-) | %21
 =B2 z2 z2 | z (_d'_c'__ba/f/g) |!pp! z/ [da]/z/[=ca]/z/[Be]/z/[Be]/z/[Ae]/z/[=Ge]/ | %24
 z/ (.[D_Gd]/z/.[CGc]/z/.[DGd]/z/.[B,GB]/z/.[CGc]/z/.[DGd]/) | %25
 z/ (.[D=Gd]/z/.[DGd]/z/.[DAd]/z/.[Dd]/z/.[DEd]/z/.[DFd]/) | %26
 z/ (.[D_Gd]/z/.[CGc]/z/.[DGd]/z/.[B,GB]/z/.[_CG_c]/z/.[C_Fc]/) | %27
 z/!<(! (.[_F_c_f]/z/.[Fcf]/z/.[=Fc=f]/z/.[Fdf]/z/.[Gcg]/z/!<)!.[GBg]/) | %28
 z/ (.[EBe]/z/.[EBe]/z/.[DGd]/!>(!z/.[DGd]/z/.[=CA=c]/z/!>)!.[CBc]/) | %29
!p! z/ (.[DBd]/z/.[DBd]/z/.[B,DB]/z/.[B,DB]/z/.[_CA_c]/z/.[C_Fc]/) | %30
 z/ (.[=CE=c]/z/.[CEc]/z/.[CEA]/z/.[CEA]/z/.[CE]/z/.[CE]/) | %31
[I:staff +1] (G,/A,/[I:staff -1]C/E/ A,/C/E/G/)"^espressivo"!<(! A,/D/_F/!<)!D/ | _c6 | %33
!f!!<(! (_f2!<)! a4-) |!>(! (a4-!>)!!p! (3aga | g2 _f) z (__A2 |!<(! _A2!<)! _c4) | %37
 (_f2 (a2-) (3aga | g2) (b2- (3bab | a2 =g4-!f! | =g2 =e2 f2) |!p! (^f2 =ec=d/=B/c-) | c4 x2 | %43
 z (^f=ec=d/=B/c-) | c/(.[C_Gc]/z/.[CGc]/z/.[DGd]/z/.[DGd]/z/.[DGd]/z/.[EGe]/) | %45
!f! z/ (.[_FA_f]/z/.[_CFA]/z/.[B,FB]/z/.[B,FB]/z/.[=CGA]/z/.[CGA]/) | %46
 z/ (.[CAc]/z/.[CAc]/z/.[=DAc]/z/.[DAB]/z/.[=EB=d]/z/.[EBc]/) | %47
 z/ (.[B,CB]/z/.[B,CB]/z/.[C=GB]/z/.[CGB]/z/.[C_GB]/z/.[CGB]/) | %48
!p! z/ (.[CGA]/z/.[CGA]/z/.[CFA]/z/.[CFA]/z/.[CFA]/z/.[CFA]/) | %49
!pp! z/ (.[CFA]/z/.[CFA]/z/.[CFA]/z/.[CFA]/z/.[CEA]/z/.[CEA]/) | %50
 z/ (.[DA]/z/.[DA]/z/.[DA]/z/[K:bass].[F,A,]/z/.[F,A,]/z/.[F,A,]/-) | %51
 [F,A,] (.[F,A,]2 .[F,A,]2 .[F,A,]-) | [F,A,]6 |] %53
V:3
 z/ (.[F,A,]/z/.[F,A,]/) |!ped! z/ (.[F,A,]/z/.[F,A,]/z/.[F,A,]/z/.[F,A,]/z/.[F,A,]/z/.[F,A,]/) | %2
 z/ (.[F,A,]/z/.[F,A,]/z/.[F,A,]/z/.[F,A,]/z/.[F,A,]/z/.[F,A,]/) | %3
 z/ [F,A,]/z/[F,A,]/z/[F,A,]/z/[F,A,]/z/!ped-up![F,=G,]/z/[F,G,]/ | %4
 z/ [=E,=G,]/z/[E,G,]/!ped!z/[_E,_G,A,]/z/[E,G,A,]/z/[E,G,C]/z/[E,G,C]/ | %5
 z/ (.[E,G,C]/z/.[E,G,C]/!ped-up!z/.[=E,=G,C]/z/.[F,A,C]/)!ped! z/!pp! [F,A,]/z/[F,A,]/ | %6
 z/ [F,A,]/z/[F,A,]/z/!ped-up![F,=G,]/z/[F,G,]/z/[=E,G,]/z/[E,G,]/ | %7
!ped! z/ [_E,_G,]/z/[E,G,]/z/[E,G,]/z/[E,G,]/!ped-up!!ped!z/[_F,A,_C]/z/[F,A,C]/!ped-up! | %8
!ped! z/ [_F,A,D]/z/[F,A,D]/z/[F,A,D]/z/[F,A,D]/!ped-up!!ped!z/[F,_C]/z/[F,C]/!ped-up! | %9
!ped! z/ _C,/z/!ped-up!C,/!ped!z/C,/z/C,/!ped-up!!ped!z/C,/z/C,/!ped-up! | %10
!pp!!ped! z/ [A,,D,]/z/[A,,D,]/z/[A,,D,F,]/z/[A,,D,F,]/z/!ped-up![A,,D,_F,]/z/[A,,D,F,]/ | %11
!mf!!ped! [^C,,^C,]2!ped-up!!ped! [^D,,^D,]2!ped! [=E,,=E,]2!ped-up! | %12
!p!!ped! z/ [=E,=A,]/z/[E,A,]/z/[E,A,]/z/[E,A,]/z/[=A,,=G,]/z/[A,,G,]/!ped-up! | %13
!mf! z/ [_B,,=F,]/z/[B,,F,]/z/[=D,=G,]/z/[D,G,]/z/[D,F,]/z/[D,F,]/ | %14
!ped! z/ [F,=A,]/z/[F,A,]/z/[F,A,]/z/[F,A,]/z/[^F,A,]/z/[=D,=G,]/!ped-up! | %15
!pp! z/ [=D,=G,]/z/[D,G,]/z/[=E,G,]/z/[E,^F,]/z/[_E,_G,]/z/[E,G,]/ | %16
!ped! z/ [_D,A,]/z/[D,A,]/z/[D,A,]/z/[D,A,]/!ped-up!!ped!z/!ped-up![D,A,]/z/[D,A,]/ | %17
!ped! z/ [__E,A,]/z/[E,A,]/z/[D,G,]/z/[D,G,]/ [_C,,_C,]2-!ped-up! | %18
!ped! [_C,,_C,]4!ped-up! z/ [G,__B,]/z/[G,B,]/ | %19
"^sempre espressivo"!ped! z/ [A,=CG]/z/[A,CG]/z/[A,CG]/z/[A,CG]/!ped-up!z/[A,CA]/z/[A,CA]/ | %20
!ped! z/ [^G,^B,]/z/[G,B,]/z/[G,^C]/z/[G,=B,]/!ped-up!z/=E,/z/E,/ | %21
!ped! [=D,,=D,]4!ped-up! z/ [=A,C]/z/[A,C]/ |!ped! _G,4!ped-up! z/ [_CE]/z/[CE]/ | %23
 z/ E/z/E/z/=C/z/C/z/C/z/C/ | (A,,E,B,E,A,,E,) | (B,A,,F,B,=G,F, | E,A,,B,E,A,,_F,) | %27
!ped! z (D,DD,!ped-up!G,,D, |!ped! =C,G,!ped-up!!ped!F,!ped-up!B,!ped-up!!ped!E,G,) | %29
!ped! (_F,A,!ped-up!!ped!F,A,!ped-up!!ped!F,A,!ped-up! |!ped! G,A,G,A,G,A,)!ped-up! | A,,2 z2 z2 | %32
 z2 (A,2 _F,2) |!ped! D,/_F,/A,/_C/ _F/A,/C/F/ z2!ped-up! | %34
!ped! D,/_F,/G,/B,/ _F/B,/G,/F,/ F/=C/G,/F,/!ped-up! | %35
 _F/=C/G,/_F,/!ped! __B,,/F,/__A,/D/!ped-up! z2 | z2!<(! (A,2 _F,2)!<)! | %37
!ped! D,/_F,/A,/_C/ _F/C/A,/F,/ F/B,/G,/F,/!ped-up! | %38
!ped! =D,/G,/B,/=D/ G/D/B,/G,/!ped-up! G/E/B,/G,/ |!ped!x/C,/B,/D/ =E/D/B,/D/!ped-up! =G/E/D/B,/ | %40
!ped!x/C,/=A,/C/ =E/C/A,/C/ F/C/A,/C/!ped-up! | %41
!ped! z/!<(! (.[=D,^F,C]/z/.[D,F,C]/z/.[D,=G,C]/z/.[D,=E,C]/!ped-up!z/.[D,F,=D]/z/!<)!.[D,F,=E]/) | %42
!mf!!ped! z/ [E,A,]/z/[E,A,]/!ped-up!z/[E,B,]/z/[E,B,]/z/[E,G,]/z/[E,G,]/ | %43
!ped! z/!<(! (.[=D,^F,C]/z/.[D,F,C]/z/.[D,=G,C]/z/.[D,=E,C]/z/!ped-up!.[D,F,=D]/z/!<)!.[D,F,=E]/) | %44
!ped!"_cresc." z/ [E,A,]/z/[E,A,]/!ped-up!z/!ped-up!!ped![E,B,]/z/[E,B,]/z/[B,,G,]/z/[_C,G,]/ | %45
!ped! z/ [A,_C]/z/D,/!ped-up!!ped!z/[G,,D,]/z/[G,,D,]/!ped-up!!ped!z/[A,,E,]/z/[A,,E,]/!ped-up! | %46
!ped! z/ [A,,=E,]/z/[A,,E,]/!ped-up!!ped!z/[B,,F,]/z/[B,,F,]/!ped-up!!ped!z/[C,=G,]/z/[C,G,]/!ped-up! | %47
!ped! z/!>(! =E,/z/E,/!ped-up!!ped!z/E,/z/E,/!ped-up!!ped!z/_E,/z/!>)!E,/!ped-up! | %48
!ped! z/ E,/z/E,/!ped-up!!ped!z/F,/z/F,/!ped-up!!ped!z/F,/z/F,/!ped-up! | %49
!ped! z/ G,/z/G,/z/G,/z/G,/!ped-up!!ped!z/G,/z/G,/!ped-up! | %50
!ped! z/ (.[A,,F,]/z/.[A,,F,]/z/.[A,,F,]/z/.[A,,D,]/z/.[A,,D,]/z/.[A,,D,]/-)!ped-up! | %51
 [A,,D,] (.[A,,D,]2 .[A,,D,]2 .[A,,D,]-) | [A,,D,]6 |] %53
V:4
 z2 | z6 | z6 | z6 | z2 A,,4- | A,,4 x2 | x6 | A,,4 A,,2 | B,,4 _C,2 | _F,,2 E,,2 __E,,2 | D,,6 | %11
 x6 | =A,,4 =E,,2 | (=D,,2 =E,,2 F,,2) | B,,6 | =B,,2 =A,,2 _A,,2 | D,,4 A,,2 | G,,4 x2 | x4 _F,2 | %19
 E,4 G,2 | =E,4 =A,,2 | x2 x/ x/ x =G,2 | x4 __B,2 | (A,4 E,2) | x6 | z A,,- A,,4 | x A,,2 x A,,2 | %27
 G,,4 G,,2 | C,2 F,2 E,2 | A,,6 | A,,6- | x6 | x6 | G,,6 | G,,6- | G,,2 __B,, z x2 | x6 | G,,6 | %38
 G,,6 | C,,6 | =A,,6 | =A,,6 | _A,,6 | =A,,6 | _A,,4 E,,2 | (D,2 D,,2 E,,2) | (=E,,2 F,,2 =G,,2) | %47
 A,,2 A,,2 A,,2 | A,,2 A,,2 A,,2 | A,,2 A,,2 A,,2 | D,,2 D,,2 D,,2 | D,,2 D,,2 D,,2 | D,,6 |] %53
V:5
 x2 | z/ (.[DA]/z/.[DA]/z/.[DA]/z/.[DA]/)z/(.[DA]/z/.[DA]/) | z/ (.D/z/.D/z/.D/z/.D/z/.D/z/.D/) | %3
 z/ D/z/D/z/D/z/D/z/D/z/D/ | z/ (.C/z/.C/z/.C/)z/C/ x2 | x4 d2 | z/ D/z/D/z/D/z/D/z/C/z/C/ | %7
 z/ C/z/C/z/C/z/C/ z2 | z2 z/ [_FA]/z/[FA]/z/[EA]/z/[EA]/ | %9
 z/!>(! [A,E]/z/[A,E]/z/[A,_F]/z/[A,F]/z/[G,F]/z/!>)![A,F]/ | z/ [A,=F]/z/[A,F]/ x2 x2 | %11
 x/ [=A,=E]/z/[A,E]/z/[A,^C]/z/[A,C]/z/[^G,C]/z/[G,C]/ | x6 | x6 | %14
 z/!>(! [=DF]/z/[DF]/z/[DF]/z/[DF]/z/D/z/!>)!D/ | %15
 z/ [=D=G]/z/[DG]/z/[C=E]/z/[C^F]/z/[C_A]/z/[CA]/ | z/!<(! =F/z/F/z/F/z/F/z/F/z/!<)!F/ | %17
 z/!>(! [_CF]/z/[CF]/z/[B,_F]/z/!>)![B,F]/z/[__B,E]/z/[B,D]/ | %18
 z/ [__B,D]/z/[B,D]/z/[B,EG]/z/[A,EA]/z/[DG__B]/z/[_CG_c]/ | x6 | %20
 z/ ^G/z/G/z/G/z/^F/z/[^C=G]/z/[CG]/ | z/ [=C=E]/z/[CE=G]/z/[C^F=A]/z/[=B,F=B]/z/[EAc]/z/[=DA=d]/ | %22
 z/ [_CE__B]/z/[CEB]/z/[CEB]/z/[CEB]/ z/ _c/z/c/ | x6 | x6 | x6 | x6 | x6 | x6 | x6 | x6 | x4 A2 | %32
 (_C/D/_F/D/ C/D/F/D/ C/D/A/D/) | x4 A z | x6 | x4 __A,/D/_F/D/ | _A,/D/_F/D/ _C/D/F/D/ C/D/A/D/ | %37
 x6 | z2 z2 !>!B2 | !>!d4 B2 | c6 | x6 | z/ [C_G]/z/[CG]/z/[CG]/z/[CG]/z/[CB]/z/[Cc]/ | x6 | x6 | %45
 x6 | x6 | x6 | x6 | x6 | x7/2[K:bass] x5/2 | x6 | x6 |] %53
V:6
 x2 | x6 | x6 | x6 | x6 | x6 | x6 | c4 x2 | x6 | x6 | x6 | x6 | x6 | x6 | x6 | x6 | x6 | x6 | x6 | %19
 x6 | x6 | x6 | x6 | x6 | x6 | x6 | x6 | x6 | x6 | x6 | x6 | x6 | x6 | x6 | x6 | x6 | x6 | x6 | %38
 x6 | x6 | x6 | x6 | x6 | x6 | x6 | x6 | x6 | x6 | x6 | x6 | x7/2[K:bass] x5/2 | x6 | x6 |] %53

